X:3047
T:Cilu (B. Lasbleiz) - En Dro
C:Trad 1, 94
M:C
L:1/8
K:G
e|:cdBc AEAB|cBAc (3BcB (3GBG|EGFA GBAB|\
cBAc (3BcB Ge|cdBc AEAB|
cBAc (3BcB (3GBG|E^EFG BABc|1 dc=FB E3e:|2 dc=FB E3E\
|:E2 (3EGE E3F|GEFG cBG=F|
E2 (3EGE E3F|GEFG BA=FA|E2 (3EGE E3F|GEFG cBG=F|\
E2 (3EGE E3F|1 GEFG A2 (3ABA:|2 GEFG A4||


